Image_Assets/email_icon.svg

<svg width="21" height="17" viewBox="0 0 21 17" fill="none" xmlns="http://www.w3.org/2000/svg">
<path fill-rule="evenodd" clip-rule="evenodd" d="M4.0232 0.820557H16.0872C16.5258 0.820547 16.9043 0.820537 17.2176 0.841907C17.5474 0.864417 17.8773 0.913917 18.2033 1.04892C18.9383 1.3534 19.5224 1.93743 19.8268 2.67251C19.9618 2.99844 20.0113 3.32835 20.0339 3.65818C20.0552 3.97144 20.0552 4.34992 20.0552 4.78857V12.8526C20.0552 13.2912 20.0552 13.6697 20.0339 13.983C20.0113 14.3128 19.9618 14.6427 19.8268 14.9687C19.5224 15.7037 18.9383 16.2878 18.2033 16.5922C17.8773 16.7272 17.5474 16.7767 17.2176 16.7993C16.9043 16.8206 16.5258 16.8206 16.0872 16.8206H4.02319C3.58454 16.8206 3.20606 16.8206 2.8928 16.7993C2.56297 16.7767 2.23306 16.7272 1.90713 16.5922C1.17205 16.2878 0.588016 15.7037 0.283536 14.9687C0.148536 14.6427 0.0990361 14.3128 0.0765261 13.983C0.0551561 13.6697 0.0551662 13.2912 0.0551762 12.8526V4.78858C0.0551662 4.34993 0.0551561 3.97144 0.0765261 3.65818C0.0990361 3.32835 0.148536 2.99844 0.283536 2.67251C0.588016 1.93743 1.17205 1.3534 1.90713 1.04892C2.23306 0.913917 2.56297 0.864417 2.8928 0.841907C3.20606 0.820537 3.58455 0.820547 4.0232 0.820557ZM2.37263 3.09833C2.73632 2.6827 3.36808 2.64058 3.78372 3.00426L9.39668 7.91556C9.77368 8.24546 10.3367 8.24546 10.7137 7.91556L16.3267 3.00426C16.7423 2.64058 17.3741 2.6827 17.7377 3.09833C18.1014 3.51397 18.0593 4.14573 17.6437 4.50941L12.0307 9.42076C10.8996 10.4105 9.21078 10.4105 8.07968 9.42076L2.46671 4.50941C2.05107 4.14573 2.00895 3.51397 2.37263 3.09833Z" fill="#1D66C0"/>
</svg>

<?xml version="1.0" encoding="utf-8"?>
<!-- Generator: Adobe Illustrator 25.2.1, SVG Export Plug-In . SVG Version: 6.00 Build 0)  -->
<svg version="1.1" id="Layer_1" xmlns="http://www.w3.org/2000/svg" xmlns:xlink="http://www.w3.org/1999/xlink" x="0px" y="0px"
	 viewBox="0 0 21 17" style="enable-background:new 0 0 21 17;" xml:space="preserve">
<style type="text/css">
	.st0{fill-rule:evenodd;clip-rule:evenodd;fill:#FFFFFF;}
</style>
<path class="st0" d="M4,0.8h12.1c0.4,0,0.8,0,1.1,0c0.3,0,0.7,0.1,1,0.2c0.7,0.3,1.3,0.9,1.6,1.6C20,3,20,3.3,20,3.7
	c0,0.3,0,0.7,0,1.1v8.1c0,0.4,0,0.8,0,1.1c0,0.3-0.1,0.7-0.2,1c-0.3,0.7-0.9,1.3-1.6,1.6c-0.3,0.1-0.7,0.2-1,0.2c-0.3,0-0.7,0-1.1,0
	H4c-0.4,0-0.8,0-1.1,0c-0.3,0-0.7-0.1-1-0.2c-0.7-0.3-1.3-0.9-1.6-1.6c-0.1-0.3-0.2-0.7-0.2-1c0-0.3,0-0.7,0-1.1V4.8
	c0-0.4,0-0.8,0-1.1c0-0.3,0.1-0.7,0.2-1C0.6,1.9,1.2,1.4,1.9,1c0.3-0.1,0.7-0.2,1-0.2C3.2,0.8,3.6,0.8,4,0.8z M2.4,3.1
	c0.4-0.4,1-0.5,1.4-0.1l5.6,4.9c0.4,0.3,0.9,0.3,1.3,0L16.3,3c0.4-0.4,1-0.3,1.4,0.1c0.4,0.4,0.3,1-0.1,1.4L12,9.4c-1.1,1-2.8,1-4,0
	L2.5,4.5C2.1,4.1,2,3.5,2.4,3.1z"/>
</svg>
